ix/document-filter_bulk.svg

<svg viewBox="0 0 24 24" fill="none" xmlns="http://www.w3.org/2000/svg" height="1em" width="1em">
  <path d="M3.22998 1H11.36C12.04 1 12.59 1.56 12.59 2.25V3.62C12.59 4.12 12.28 4.73999 11.97 5.04999L9.32001 7.42001C8.95001 7.73001 8.70001 8.36001 8.70001 8.85001V11.53C8.70001 11.9 8.45002 12.4 8.15002 12.59L7.28998 13.15C6.48998 13.65 5.38 13.09 5.38 12.09V8.78C5.38 8.34 5.13001 7.78 4.89001 7.47L2.54999 4.97C2.23999 4.66 2 4.1 2 3.72V2.29001C2 1.56001 2.54998 1 3.22998 1Z" fill="#292D32"/>
  <path opacity="0.4" d="M17 2H14.6C14.32 2 14.1 2.22 14.1 2.5C14.1 2.98 14.1 3.62 14.1 3.62C14.1 4.61 13.57 5.57999 13.05 6.10999L10.33 8.54001C10.3 8.61001 10.25 8.71001 10.22 8.79001V11.54C10.22 12.45 9.68 13.44 8.94 13.89L8.12 14.42C7.66 14.71 7.15001 14.85 6.64001 14.85C6.18001 14.85 5.71999 14.73 5.29999 14.5C4.64999 14.14 4.2 13.55 4 12.87V10.21C4 10.08 3.94998 9.94999 3.84998 9.85999L2.84998 8.85999C2.52998 8.54999 2 8.76999 2 9.20999V17C2 19.76 4.24 22 7 22H17C19.76 22 22 19.76 22 17V7C22 4.24 19.76 2 17 2Z" fill="#292D32"/>
  <path d="M18 13.75H13C12.59 13.75 12.25 13.41 12.25 13C12.25 12.59 12.59 12.25 13 12.25H18C18.41 12.25 18.75 12.59 18.75 13C18.75 13.41 18.41 13.75 18 13.75Z" fill="#292D32"/>
  <path d="M18 17.75H11C10.59 17.75 10.25 17.41 10.25 17C10.25 16.59 10.59 16.25 11 16.25H18C18.41 16.25 18.75 16.59 18.75 17C18.75 17.41 18.41 17.75 18 17.75Z" fill="#292D32"/>
</svg>

<svg viewBox="0 0 24 24" fill="none" xmlns="http://www.w3.org/2000/svg" height="1em" width="1em">
  <path d="M3.23 1h8.13c.68 0 1.23.56 1.23 1.25v1.37c0 .5-.31 1.12-.62 1.43L9.32 7.42c-.37.31-.62.94-.62 1.43v2.68c0 .37-.25.87-.55 1.06l-.86.56c-.8.5-1.91-.06-1.91-1.06V8.78c0-.44-.25-1-.49-1.31l-2.34-2.5C2.24 4.66 2 4.1 2 3.72V2.29C2 1.56 2.55 1 3.23 1Z" fill="#292D32"/>
  <path opacity=".4" d="M17 2h-2.4c-.28 0-.5.22-.5.5v1.12c0 .99-.53 1.96-1.05 2.49l-2.72 2.43c-.03.07-.08.17-.11.25v2.75c0 .91-.54 1.9-1.28 2.35l-.82.53c-.46.29-.97.43-1.48.43-.46 0-.92-.12-1.34-.35-.65-.36-1.1-.95-1.3-1.63v-2.66a.47.47 0 0 0-.15-.35l-1-1c-.32-.31-.85-.09-.85.35V17c0 2.76 2.24 5 5 5h10c2.76 0 5-2.24 5-5V7c0-2.76-2.24-5-5-5Z" fill="#292D32"/>
  <path d="M18 13.75h-5c-.41 0-.75-.34-.75-.75s.34-.75.75-.75h5c.41 0 .75.34.75.75s-.34.75-.75.75Zm0 4h-7c-.41 0-.75-.34-.75-.75s.34-.75.75-.75h7c.41 0 .75.34.75.75s-.34.75-.75.75Z" fill="#292D32"/>
</svg>
